X:1
T:Title
%%score 1 2
L:1/8
Q:1/4=75
M:6/8
K:D
V:1 treble nm="Strings 1, Soprano"
V:2 bass nm="Strings 1, Bass"
V:1
 [DF]>[DF][DF] [DF]2 [FA] | [FA]2 [EG] [EG]3 | [CE]>[CE][CE] [CE]2 [EG] | [EG]2 [DF] [DF]3 | %4
w: 1.~Fol low ing~ Je sus~|day~ by~ day,~|Fol low ing~ Him�~ His~|will~ o bey,~|
 [FA]>[FA][FA] [FA]2 [Fd] | [Ge]2 [Gd] [Gc]2 [GB] | [GA]>[GA][GA] [GB]2 [Gc] | [Fd]6 | %8
w: Fol low ing~ Him,~ I~|can not~ stray,~ I'll~|fol low~ Him~ all~ the~|way.~|
 [FA]>[DF][DF] [DF]3 | [FA]>[EG][EG] [EG]3 | [Ec]>[DB][DB] [GB]2 [Gc] | [GB]>[FA][EG] [DF]3 | %12
w: ||||
 [FA]>[FA][FA] [Fd]3 | [GB]>[GB][GB] [^Ge]2[Q:1/4=75] [Gd][Q:1/4=12] | [Ac]>[Ac][Ac] [GB]2 [Gc] | %15
w: |||
 [Fd]6 |] %16
w: |
V:2
 [D,A,]>[D,A,][D,A,] [D,A,]2 [D,D] | [A,,D]2 [A,,A,] [A,,A,]3 | %2
 [A,,A,]>[A,,A,][A,,A,] [A,,A,]2 [A,,C] | [D,D]2 [D,A,] [D,A,]3 | [D,D]>[D,D][D,D] [D,D]2 [D,A,] | %5
 [G,B,]2 [G,B,] [G,E]2 [G,D] | [A,C]>[A,C][A,C] [A,C]2 A, | [D,A,]6 | [D,D]>[D,A,][D,A,] [D,A,]3 | %9
 [A,,A,]>[A,,A,][A,,A,] [A,,A,]3 | [A,,A,]>[A,,A,][A,,A,] [A,,A,]2 [A,,A,] | %11
 [A,,A,]>[B,,A,][C,A,] [D,A,]3 | [D,D]>[D,D][D,A,] [B,,B,]3 | [G,D]>[G,D][G,B,] [E,B,]2 [E,E] | %14
 [A,E]>[A,E][A,E] [A,C]2 A, | [D,A,]6 |] %16

